Resources/Public/Images/Icons/Glyphicons/barcode.svg

<svg xmlns="http://www.w3.org/2000/svg" width="32" height="32"><path d="M3.5 26H1V1h2.5v25zm5 0H6V1h2.5v25zm10 0h-5V1h5v25zm5 0H21V1h2.5v25zm7.5 0h-5V1h5v25zm-20 5H3.5v-2.5H11V31zm5 0h-2.5v-2.3H16V31zm5 0h-2.5v-2.3H21V31zm7.5 0h-5v-2.3h5V31z"/></svg>

<?xml version="1.0" encoding="utf-8"?>
<!-- Generator: Adobe Illustrator 22.1.0, SVG Export Plug-In . SVG Version: 6.00 Build 0)  -->
<svg version="1.1" id="Ebene_1" xmlns="http://www.w3.org/2000/svg" xmlns:xlink="http://www.w3.org/1999/xlink" x="0px" y="0px"
	 width="32px" height="32px" viewBox="0 0 32 32" style="enable-background:new 0 0 32 32;" xml:space="preserve">
<path d="M3.5,26H1V1h2.5V26z M8.5,26H6V1h2.5V26z M18.5,26h-5V1h5V26z M23.5,26H21V1h2.5V26z M31,26h-5V1h5V26z M11,31H3.5v-2.5H11
	V31z M16,31h-2.5v-2.3H16V31z M21,31h-2.5v-2.3H21V31z M28.5,31h-5v-2.3h5V31z"/>
</svg>
